X: 1
T: We'll Aye Be Fond o' Ingram
R: strathspey
B:
Z: 2004 John Chambers <jc:trillian.mit.edu>
M: C
L: 1/8
K: A
F \
| "A"E<A A>E F>E A>E | "Bm"F<B B>F "E7"G>E e2 \
| "A"E<A A>G "D"G>F F>d | "A"c>A "E7"B>G "A"A3 :|
d \
| "A"c>A "E7"B>G "A"A>B c>E | "Bm"F<B B>F "E7"G>E e>d \
| "A"c>A "E7"B>G "A"A<a ed/c/ | "A"c>A "E7"B>G "A"A3 |]
d \
| "A"cB/A/ "E7"BA/G/ "A"A>B c>E | "Bm"F<B B>F "E7"G>E e>d \
| "A"(3cde "D"(3fga "A"(3edc "E7"(3Bcd | "A"c>A "E7"B>G "A"A3 |]
